public/images/icon-trash.svg

<svg width="24" height="24" viewBox="0 0 24 24" fill="none" xmlns="http://www.w3.org/2000/svg">
<path d="M10 11V17M14 11V17M4 7H20M19 7L18.133 19.142C18.0971 19.6466 17.8713 20.1188 17.5011 20.4636C17.1309 20.8083 16.6439 21 16.138 21H7.862C7.35614 21 6.86907 20.8083 6.49889 20.4636C6.1287 20.1188 5.90292 19.6466 5.867 19.142L5 7H19ZM15 7V4C15 3.73478 14.8946 3.48043 14.7071 3.29289C14.5196 3.10536 14.2652 3 14 3H10C9.73478 3 9.48043 3.10536 9.29289 3.29289C9.10536 3.48043 9 3.73478 9 4V7H15Z" stroke="#38a169" stroke-width="2" stroke-linecap="round" stroke-linejoin="round"/>
</svg>

<svg xmlns="http://www.w3.org/2000/svg" width="24" height="24" fill="none"><path stroke="#38a169" stroke-linecap="round" stroke-linejoin="round" stroke-width="2" d="M10 11v6m4-6v6M4 7h16m-1 0-.867 12.142A2 2 0 0 1 16.138 21H7.862a2.0003 2.0003 0 0 1-1.995-1.858L5 7h14Zm-4 0V4a1.0002 1.0002 0 0 0-1-1h-4a1 1 0 0 0-1 1v3h6Z"/></svg>
